X:47
M:2/4
L:1/8
K:Bb
|:g|_.b(agf)|.g(gfe)|.f(fed)|e3 e|.f(fed)|.e(edc)|dcBA|B2F2|

